X:240
T: ES WAR EIN REICHER SCHLAECHTERSMANN
N: E0120
O: Europa, Mitteleuropa, Deutschland, Brandenburg
R: erzaehlendes Volks - Lied, Schalk -, Schelmen - Lied, Liebe
M: 4/4
L: 1/8
K: A
AB | =cdcBA2Bc | ded=cB2
d2 | e2e2A2d2 | =c2B2A2
A2 | e3de2=f2 | d3=cd2
e2 | =c3BA2d2 | =c2B2A2
A2 | e3de2=f2 | d3=cd2
e2 | =c3BA2d2 | =c2B2A2

